Pods/ProtonCore-UIFoundations/libraries/UIFoundations/Sources/Assets.xcassets/Images/IconSet/ic-arrows-from-center.imageset/ic-arrows-from-center.svg

<svg width="24" height="24" viewBox="0 0 24 24" fill="none" xmlns="http://www.w3.org/2000/svg">
<path fill-rule="evenodd" clip-rule="evenodd" d="M12 3.75C12 3.33579 12.3358 3 12.75 3H20.25C20.6642 3 21 3.33579 21 3.75V11.25C21 11.6642 20.6642 12 20.25 12C19.8358 12 19.5 11.6642 19.5 11.25V5.55452L5.56074 19.4997H11.25C11.6642 19.4997 12 19.8355 12 20.2497C12 20.6639 11.6642 20.9997 11.25 20.9997H3.75C3.33579 20.9997 3 20.6639 3 20.2497V12.7497C3 12.3355 3.33579 11.9997 3.75 11.9997C4.16421 11.9997 4.5 12.3355 4.5 12.7497V18.4391L18.4332 4.5H12.75C12.3358 4.5 12 4.16421 12 3.75Z" fill="#0C0C14"/>
</svg>

<svg xmlns="http://www.w3.org/2000/svg" width="24" height="24" viewBox="0 0 24 24">
  <g class="ic-arrows-from-center">
    <path fill-rule="evenodd" d="M12 3.75a.75.75 0 0 1 .75-.75h7.5a.75.75 0 0 1 .75.75v7.5a.75.75 0 0 1-1.5 0V5.555L5.56 19.5h5.69a.75.75 0 0 1 0 1.5h-7.5a.75.75 0 0 1-.75-.75v-7.5a.75.75 0 0 1 1.5 0v5.69L18.433 4.5H12.75a.75.75 0 0 1-.75-.75Z" class="Icon"/>
  </g>
</svg>
